X: 112203
Q: "Strathspey."
M: C
L: 1/8
K: Em
uB |\
ve>vfug>ue vd>vB (3(Bcd) | c>A (3(ABc) d>BB>d |\
e>fg>e d>B (3(Bcd) | c>AB>G E2-E ::\
uD |\
|: (vf |\
g2) uf>ue (d<B) (3(Bcd) | (c<A) (3(ABc) (d<B) (B<d) |
g2 uf>ue (d<B) (3(Bcd) | vc>vAuB>uG E2-E ::\
uD |\


